X:260
T: Die versoffenen Kleider (26c), S.106
N: T0149
O: Luxemburg
S: Singendes Volk, Esch-Alzette 1937 posth.]
N: Rosport, fff Maria Schiltz, 8.3.1934
R: Liebeslieder]
M: 3/4
L: 1/8
K: F
AG | F2A2GF | E2B2
AG | F2c2dd | c2z2
cc | d2ddcB | Acc
cBA | G2c2dd | c2z2
cc | d2ddcB | Acc
cBA | G2c2AG | F2z2

@@@ Tune index: 8314
